img/ui/about-tool/hover.svg

<svg width="100" height="100" viewBox="0 0 100 100" fill="none" xmlns="http://www.w3.org/2000/svg">
<path d="M73 10H27C17.6112 10 10 17.6112 10 27V73C10 82.3888 17.6112 90 27 90H73C82.3888 90 90 82.3888 90 73V27C90 17.6112 82.3888 10 73 10Z" fill="#D3D1BB" stroke="#616353" stroke-width="4"/>
<path fill-rule="evenodd" clip-rule="evenodd" d="M49.0017 53.0748L48.9993 53.0817C48.6877 53.9746 48.4196 55.1429 48.2343 56.6321C48.2079 56.8449 48.2624 57.0423 48.4607 57.2466C48.6817 57.4741 49.0482 57.6559 49.4905 57.6559C49.8115 57.6559 50.1805 57.5438 50.6271 57.1291C51.1078 56.6829 51.5799 55.9582 51.8873 55.0497L51.9043 55L51.9052 54.9975C52.6042 52.9286 53.8076 51.0634 55.3584 49.3892L55.3791 49.367L55.4001 49.345L59.7634 44.7759C61.3915 42.9884 62.4485 41.3742 63.0657 39.9431C63.6661 38.5505 63.9999 36.9334 63.9999 35.0323C63.9999 30.3759 62.6867 27.3493 60.5558 25.3411L60.5499 25.3355L60.544 25.3299C58.395 23.2879 55.1131 22 50.1145 22C45.1781 22 41.8859 23.3664 39.6667 25.6223L39.6604 25.6287L39.6541 25.6351C38.3209 26.9782 37.3277 28.669 36.7127 30.8109C36.6624 30.986 36.6759 31.0895 36.6946 31.1601C36.7172 31.2454 36.7767 31.3798 36.9241 31.5393C37.241 31.8824 37.838 32.1935 38.5637 32.1935H39.5003C39.7053 32.1935 40.0838 32.1284 40.783 31.5205C41.5355 30.8664 42.2692 29.9311 43.2032 28.6811C44.8741 26.4447 47.28 25.1828 50.1145 25.1828C52.7172 25.1828 55.268 26.0888 57.0177 28.3761C58.6123 30.4607 59.0827 33.1153 59.0827 35.6774C59.0827 38.2494 58.3496 40.653 56.9239 42.7943C55.7269 44.6009 54.0675 46.4545 52.0562 48.3511C50.6387 49.6876 49.6329 51.245 49.0041 53.0679L49.0017 53.0748ZM53.5922 40.5806C54.5859 39.0896 55.0827 37.4552 55.0827 35.6774C55.0827 31.3477 53.4266 29.1828 50.1145 29.1828C48.5859 29.1828 47.3502 29.8136 46.4075 31.0753C44.6046 33.4883 42.5124 36.1935 39.5003 36.1935H38.5637C34.948 36.1935 31.8702 33.1822 32.868 29.707C33.6527 26.9744 34.9684 24.6778 36.8152 22.8172C39.9744 19.6057 44.4075 18 50.1145 18C55.796 18 60.191 19.4767 63.2992 22.4301C66.433 25.3835 67.9999 29.5842 67.9999 35.0323C67.9999 37.4122 67.5795 39.5771 66.7387 41.5269C65.898 43.4767 64.5476 45.4695 62.6878 47.5054L58.2929 52.1075C57.0445 53.4552 56.1782 54.8459 55.6941 56.2796L55.6763 56.3319C54.7136 59.1766 52.4937 61.6559 49.4905 61.6559C46.437 61.6559 43.888 59.1685 44.2649 56.1383C44.475 54.4492 44.7943 52.9909 45.2228 51.7634C46.0636 49.3262 47.4266 47.2186 49.312 45.4409C51.1973 43.6631 52.6241 42.043 53.5922 40.5806ZM57.0001 74.5C57.0001 78.6421 53.6422 82 49.5001 82C45.3579 82 42.0001 78.6421 42.0001 74.5C42.0001 70.3579 45.3579 67 49.5001 67C53.6422 67 57.0001 70.3579 57.0001 74.5ZM53.0001 74.5C53.0001 76.433 51.4331 78 49.5001 78C47.5671 78 46.0001 76.433 46.0001 74.5C46.0001 72.567 47.5671 71 49.5001 71C51.4331 71 53.0001 72.567 53.0001 74.5Z" fill="#9C9F83"/>
</svg>

<svg width="100" height="100" fill="none" xmlns="http://www.w3.org/2000/svg"><path d="M73 10H27c-9.389 0-17 7.611-17 17v46c0 9.389 7.611 17 17 17h46c9.389 0 17-7.611 17-17V27c0-9.389-7.611-17-17-17Z" fill="#D3D1BB" stroke="#616353" stroke-width="4"/><path fill-rule="evenodd" clip-rule="evenodd" d="m49.002 53.075-.003.007c-.311.893-.58 2.06-.765 3.55-.026.213.028.41.227.615.22.227.587.409 1.03.409.32 0 .69-.112 1.136-.527.48-.446.953-1.17 1.26-2.08l.017-.049.001-.002c.7-2.07 1.903-3.935 3.453-5.609l.021-.022.021-.022 4.363-4.57c1.629-1.787 2.686-3.4 3.303-4.832.6-1.392.934-3.01.934-4.91 0-4.657-1.313-7.684-3.444-9.692l-.006-.006-.006-.005c-2.149-2.042-5.43-3.33-10.43-3.33-4.936 0-8.228 1.366-10.447 3.622l-.007.007-.006.006c-1.333 1.343-2.326 3.034-2.941 5.176a.62.62 0 0 0-.018.35c.022.084.082.219.23.378.316.343.913.654 1.639.654h.936c.205 0 .584-.065 1.283-.672.752-.655 1.486-1.59 2.42-2.84 1.671-2.236 4.077-3.498 6.911-3.498 2.603 0 5.154.906 6.904 3.193 1.594 2.085 2.065 4.74 2.065 7.301 0 2.572-.733 4.976-2.16 7.117-1.196 1.807-2.855 3.66-4.867 5.557a11.53 11.53 0 0 0-3.052 4.717l-.002.007Zm4.59-12.494a8.659 8.659 0 0 0 1.49-4.904c0-4.33-1.655-6.494-4.968-6.494-1.528 0-2.764.63-3.706 1.892-1.803 2.413-3.896 5.119-6.908 5.119h-.936c-3.616 0-6.694-3.012-5.696-6.487.785-2.733 2.1-5.03 3.947-6.89 3.16-3.211 7.593-4.817 13.3-4.817 5.681 0 10.076 1.477 13.184 4.43 3.134 2.954 4.7 7.154 4.7 12.602 0 2.38-.42 4.545-1.26 6.495-.841 1.95-2.191 3.942-4.051 5.978l-4.395 4.602c-1.248 1.348-2.115 2.739-2.599 4.173l-.018.052c-.962 2.845-3.182 5.324-6.186 5.324-3.053 0-5.602-2.487-5.225-5.518.21-1.689.53-3.147.958-4.375a15.53 15.53 0 0 1 4.089-6.322c1.885-1.778 3.312-3.398 4.28-4.86ZM57 74.5a7.5 7.5 0 1 1-15 0 7.5 7.5 0 0 1 15 0Zm-4 0a3.5 3.5 0 1 1-7 0 3.5 3.5 0 0 1 7 0Z" fill="#9C9F83"/></svg>
